img/arrow-deg.svg

<svg width="14" height="14" viewBox="0 0 14 14" fill="none" xmlns="http://www.w3.org/2000/svg">
<path d="M1.06937 11.4027L0.338695 12.1334L1.80005 13.5947L2.53073 12.8641L1.06937 11.4027ZM12.8641 2.53073C13.2676 2.12718 13.2676 1.47291 12.8641 1.06937C12.4605 0.66583 11.8062 0.66583 11.4027 1.06937L12.8641 2.53073ZM2.53073 12.8641L12.8641 2.53073L11.4027 1.06937L1.06937 11.4027L2.53073 12.8641Z" fill="white"/>
<path d="M1.80005 1.80005H12.1334V12.1334" stroke="white" stroke-width="2.06667" stroke-linecap="square" stroke-linejoin="round"/>
</svg>

<svg width="14" height="14" fill="none" xmlns="http://www.w3.org/2000/svg"><path d="m1.07 11.403-.731.73L1.8 13.595l.73-.73-1.46-1.462ZM12.863 2.53a1.033 1.033 0 0 0-1.461-1.462l1.461 1.462ZM2.531 12.864 12.864 2.531l-1.461-1.462L1.069 11.403l1.462 1.461Z" fill="#fff"/><path d="M1.8 1.8h10.333v10.333" stroke="#fff" stroke-width="2.067" stroke-linecap="square" stroke-linejoin="round"/></svg>
